X: 3116
Q:"Reel."
M: C
L: 1/8
K: A
uf |\
eaec A/A/A a2 | B=gdg B=GGf |\
eaec A/A/A a2 | faea cAA ::\
e |\
cAeA cAaA |
[1 cAeA cAae | faea cAA :|\
[2 cAae faea | dfBe cAA |]


